X:1534
T:Black-Eyed Lassie Reel
M:4/4
L:1/8
K:Gm
A|B2 d/c/B fBbB|B2 d/c/B AFcF|B2 d/c/B fBbB|cAFA BGGA|!
B2 d/c/B fBbB|B2 d/c/B AFcF|B2 d/c/B fBbB|cAFA BGG:|!
|:F|DGBG dGBG|DGBG AFcA|DGBG dGBG|cAFA BGG z|!
DGBG dGBG|DGBG AFcF|DGBG dGBG|cAFA BGG:|!


